cy/code-outline-alerted.svg

<svg viewBox="0 0 36 36" xmlns="http://www.w3.org/2000/svg" height="1em" width="1em">
  <path d="M13.71 12.59a1 1 0 0 0-1.39-.26l-6.53 4.45a1 1 0 0 0 0 1.65l6.53 4.45a1 1 0 1 0 1.13-1.65l-5.32-3.62L13.45 14a1 1 0 0 0 .26-1.41Z" class="clr-i-outline--alerted clr-i-outline-path-1--alerted"/>
  <path d="m18.56 11.62-3.15 12.67a.9.9 0 0 0 .66 1.09h.22a.9.9 0 0 0 .87-.68l2.57-10.3a3.59 3.59 0 0 1-1.16-2.79Z" class="clr-i-outline--alerted clr-i-outline-path-2--alerted"/>
  <path d="m30.21 16.78-2-1.38h-3.57l3.24 2.21-5.32 3.63a1 1 0 0 0 1.13 1.65l6.53-4.45a1 1 0 0 0 0-1.65Z" class="clr-i-outline--alerted clr-i-outline-path-3--alerted"/>
  <path d="M26.85 1.14 21.13 11a1.28 1.28 0 0 0 1.1 2h11.45a1.28 1.28 0 0 0 1.1-2l-5.72-9.86a1.28 1.28 0 0 0-2.21 0Z" class="clr-i-outline--alerted clr-i-outline-path-4--alerted clr-i-alert"/>
  <path fill="none" d="M0 0h36v36H0z"/>
</svg>

<svg version="1.1" viewBox="0 0 36 36" preserveAspectRatio="xMidYMid meet" xmlns="http://www.w3.org/2000/svg" height="1em" width="1em">
  <path d="M13.71,12.59a1,1,0,0,0-1.39-.26L5.79,16.78a1,1,0,0,0,0,1.65l6.53,4.45a1,1,0,1,0,1.13-1.65L8.13,17.61,13.45,14A1,1,0,0,0,13.71,12.59Z" class="clr-i-outline--alerted clr-i-outline-path-1--alerted"/>
  <path d="M18.56,11.62,15.41,24.29a.9.9,0,0,0,.66,1.09l.22,0a.9.9,0,0,0,.87-.68L19.73,14.4a3.59,3.59,0,0,1-1.16-2.79Z" class="clr-i-outline--alerted clr-i-outline-path-2--alerted"/>
  <path d="M30.21,16.78l-2-1.38H24.64l3.24,2.21-5.32,3.63a1,1,0,0,0,1.13,1.65l6.53-4.45a1,1,0,0,0,0-1.65Z" class="clr-i-outline--alerted clr-i-outline-path-3--alerted"/>
  <path d="M26.85,1.14,21.13,11A1.28,1.28,0,0,0,22.23,13H33.68A1.28,1.28,0,0,0,34.78,11L29.06,1.14A1.28,1.28,0,0,0,26.85,1.14Z" class="clr-i-outline--alerted clr-i-outline-path-4--alerted clr-i-alert"/>
  <rect x="0" y="0" width="36" height="36" fill-opacity="0"/>
</svg>
